static/images/uploads/login-icon.svg

<?xml version="1.0" encoding="UTF-8"?>
<svg width="14px" height="15px" viewBox="0 0 14 15" version="1.1" xmlns="http://www.w3.org/2000/svg" xmlns:xlink="http://www.w3.org/1999/xlink">
    <!-- Generator: Sketch 49.2 (51160) - http://www.bohemiancoding.com/sketch -->
    <title>Group</title>
    <desc>Created with Sketch.</desc>
    <defs></defs>
    <g id="Design" stroke="none" stroke-width="1" fill="none" fill-rule="evenodd">
        <g id="HOME-V4" transform="translate(-1248.000000, -47.000000)" fill="#F6EBD4">
            <g id="Group" transform="translate(1248.000000, 47.000000)">
                <path d="M7,7.5 C4.88010526,7.5 3.16252632,5.83426786 3.16252632,3.78 C3.16252632,1.725 4.88014211,0.0592857143 7,0.0592857143 C9.11985789,0.0592857143 10.8374737,1.72501786 10.8374737,3.78 C10.8374737,5.83428571 9.11985789,7.5 7,7.5 Z M7,6.75571429 C8.69530789,6.75571429 10.0704211,5.42341071 10.0704211,3.78 C10.0704211,2.13589286 8.69532632,0.803571429 7,0.803571429 C5.30467368,0.803571429 3.92957895,2.135875 3.92957895,3.78 C3.92957895,5.42341071 5.30467368,6.75571429 7,6.75571429 Z" id="Fill-1"></path>
                <path d="M0.0921052632,12.3360714 C0.0921052632,10.0760714 1.98247368,8.24428571 4.31384211,8.24428571 L9.68615789,8.24428571 C12.0175263,8.24428571 13.9078947,10.0760714 13.9078947,12.3360714 L13.9078947,14.5682143 C13.9078947,14.7739823 13.7359176,14.9406966 13.5243684,14.9406966 L0.475631579,14.9406966 C0.264084211,14.9406966 0.0921052632,14.7739841 0.0921052632,14.5682143 L0.0921052632,12.3360714 Z M13.1401053,12.3360714 C13.1401053,10.4869643 11.59375,8.98785714 9.68615789,8.98785714 L4.31384211,8.98785714 C2.40634211,8.98785714 0.859894737,10.486875 0.859894737,12.3360714 L0.859894737,14.1964286 L13.1401053,14.1964286 L13.1401053,12.3360714 Z" id="Fill-2"></path>
            </g>
        </g>
    </g>
</svg>

<svg height="15" viewBox="0 0 14 15" width="14" xmlns="http://www.w3.org/2000/svg"><g fill="#f6ebd4" fill-rule="evenodd"><path d="m7 7.5c-2.11989474 0-3.83747368-1.66573214-3.83747368-3.72 0-2.055 1.71761579-3.72071429 3.83747368-3.72071429s3.8374737 1.66573215 3.8374737 3.72071429c0 2.05428571-1.71761581 3.72-3.8374737 3.72zm0-.74428571c1.69530789 0 3.0704211-1.33230358 3.0704211-2.97571429 0-1.64410714-1.37509478-2.97642857-3.0704211-2.97642857s-3.07042105 1.33230357-3.07042105 2.97642857c0 1.64341071 1.37509473 2.97571429 3.07042105 2.97571429z"/><path d="m.09210526 12.3360714c0-2.26 1.89036842-4.09178569 4.22173685-4.09178569h5.37231578c2.33136841 0 4.22173681 1.83178569 4.22173681 4.09178569v2.2321429c0 .205768-.1719771.3724823-.3835263.3724823h-13.04873682c-.21154737 0-.38352632-.1667125-.38352632-.3724823zm13.04800004 0c0-1.8491071-1.5463553-3.34821426-3.45394741-3.34821426h-5.37231578c-1.9075 0-3.45394737 1.49901786-3.45394737 3.34821426v1.8603572h12.28021056z"/></g></svg>
